; generated by PrusaSlicer 2.2.0+linux-x64 on 2021-01-08 at 16:14:18 UTC

; 

; external perimeters extrusion width = 0.45mm
; perimeters extrusion width = 0.45mm
; infill extrusion width = 0.45mm
; solid infill extrusion width = 0.45mm
; top infill extrusion width = 0.40mm
; first layer extrusion width = 0.42mm

M201 X1000 Y1000 Z200 E5000 ; sets maximum accelerations, mm/sec^2
M203 X200 Y200 Z12 E120 ; sets maximum feedrates, mm/sec
M204 P1250 R1250 T1250 ; sets acceleration (P, T) and retract acceleration (R), mm/sec^2
M205 X8.00 Y8.00 Z0.40 E4.50 ; sets the jerk limits, mm/sec
M205 S0 T0 ; sets the minimum extruding and travel feed rate, mm/sec
M107
G28 W; home all without mesh bed level
G1 Z5 F5000 ; lift nozzle
M104 S215 ; set extruder temp
M140 S60 ; set bed temp
G29 ; mesh bed leveling
G1 X5.0 Y0.0 F10000.0

M190 S60 ; wait for bed temp
M109 S215 ; wait for extruder temp

G1 Z0 F5000 ; drop nozzle
G92 E0.0
G1 X60.0 E9.0 F1000.0 ; intro line
G1 X100.0 E12.5 F1000.0 ; intro line
G92 E0.0
G21 ; set units to millimeters
G90 ; use absolute coordinates
M83 ; use relative distances for extrusion
M900 K0.05 ; Filament gcode LA 1.5
M900 K30 ; Filament gcode LA 1.0
G1 E-0.80000 F2100.00000
G1 Z0.600 F7200.000
G1 X98.533 Y108.288
G1 Z0.350
G1 E0.80000 F2100.00000
G1 F1800.000
G1 X98.779 Y108.143 E0.01435
G1 X99.097 Y108.078 E0.01629
G1 X99.250 Y108.088 E0.00770
G1 X99.419 Y108.145 E0.00894
G1 X99.573 Y108.234 E0.00891
G1 X99.703 Y108.360 E0.00910
G1 X99.815 Y108.508 E0.00933
G1 X99.909 Y108.705 E0.01092
G1 X99.998 Y109.046 E0.01767
G1 X100.114 Y109.276 E0.01293
G1 X100.220 Y109.007 E0.01450
G1 X100.346 Y109.091 E0.00758
G1 X100.463 Y108.660 E0.02239
G1 X100.581 Y108.452 E0.01204
G1 X100.845 Y108.204 E0.01814
G1 X101.095 Y108.091 E0.01379
G1 X101.372 Y108.095 E0.01387
G1 X101.545 Y108.163 E0.00936
G1 X101.697 Y108.260 E0.00904
G1 X101.914 Y108.490 E0.01588
G1 X101.980 Y108.689 E0.01051
G1 X102.004 Y108.861 E0.00875
G1 X101.991 Y109.114 E0.01270
G1 X101.954 Y109.301 E0.00954
G1 X101.638 Y109.879 E0.03305
G1 X101.267 Y110.490 E0.03587
G1 X101.194 Y110.710 E0.01164
G1 X101.230 Y110.852 E0.00737
G1 X101.955 Y112.063 E0.07083
G1 X102.086 Y112.423 E0.01925
G1 X102.103 Y112.726 E0.01521
G1 X102.036 Y113.014 E0.01485
G1 X101.878 Y113.250 E0.01427
G1 X101.655 Y113.411 E0.01377
G1 X101.386 Y113.496 E0.01419
G1 X101.101 Y113.498 E0.01430
G1 X100.902 Y113.444 E0.01036
G1 X100.686 Y113.300 E0.01300
G1 X100.567 Y113.161 E0.00918
G1 X100.474 Y112.998 E0.00942
G1 X100.352 Y112.663 E0.01789
G1 X100.314 Y112.414 E0.01265
G1 X100.057 Y112.319 E0.01376
G1 X99.953 Y112.364 E0.00566
G1 X99.910 Y112.455 E0.00502
G1 X99.905 Y112.579 E0.00624
G1 X99.731 Y113.014 E0.02350
G1 X99.563 Y113.242 E0.01420
G1 X99.417 Y113.374 E0.00990
G1 X99.154 Y113.460 E0.01389
G1 X98.965 Y113.454 E0.00950
G1 X98.801 Y113.408 E0.00855
G1 X98.640 Y113.333 E0.00894
G1 X98.549 Y113.253 E0.00603
G1 X98.390 Y113.042 E0.01329
G1 X98.341 Y112.809 E0.01191
G1 X98.346 Y112.615 E0.00978
G1 X98.465 Y112.057 E0.02859
G1 X98.785 Y111.352 E0.03885
G1 X98.911 Y111.133 E0.01269
G1 X99.177 Y110.765 E0.02278
G1 X98.946 Y110.419 E0.02089
G1 X98.377 Y109.392 E0.05890
G1 X98.283 Y109.113 E0.01482
G1 X98.258 Y108.931 E0.00919
G1 X98.266 Y108.749 E0.00916
G1 X98.357 Y108.495 E0.01354
G1 X98.494 Y108.334 E0.01061
G1 X98.482 Y108.007 F7200.000
G1 F5760.000
G1 X98.779 Y108.143 E-0.11889
G1 X99.097 Y108.078 E-0.11241
G1 X99.250 Y108.088 E-0.05315
G1 X99.419 Y108.145 E-0.06171
G1 X99.573 Y108.234 E-0.06152
G1 X99.703 Y108.360 E-0.06283
G1 X99.815 Y108.508 E-0.06438
G1 X99.909 Y108.705 E-0.07535
G1 X99.998 Y109.046 E-0.12198
G1 X100.034 Y109.117 E-0.02779
G1 E-0.04000 F2100.00000
G1 Z0.950 F7200.000
G1 X97.280 Y111.058
G1 Z0.350
G1 E0.80000 F2100.00000
G1 F1800.000
G1 X97.509 Y111.173 E0.01288
G1 X97.706 Y111.333 E0.01273
G1 X97.865 Y111.529 E0.01269
G1 X97.980 Y111.755 E0.01270
G1 X98.040 Y111.999 E0.01262
G1 X98.040 Y112.238 E0.01196
G1 X97.940 Y112.932 E0.03520
G1 X97.847 Y113.162 E0.01248
G1 X97.711 Y113.359 E0.01199
G1 X97.512 Y113.537 E0.01341
G1 X97.292 Y113.667 E0.01281
G1 X97.044 Y113.745 E0.01305
G1 X96.675 Y113.773 E0.01859
G1 X96.312 Y113.699 E0.01859
G1 X96.079 Y113.591 E0.01288
G1 X95.872 Y113.442 E0.01280
G1 X95.705 Y113.251 E0.01271
G1 X95.577 Y113.030 E0.01285
G1 X95.513 Y112.786 E0.01266
G1 X95.495 Y112.539 E0.01243
G1 X95.631 Y111.949 E0.03037
G1 X95.724 Y111.751 E0.01095
G1 X95.845 Y111.582 E0.01047
G1 X96.193 Y111.199 E0.02594
G1 X96.524 Y111.027 E0.01874
G1 X96.780 Y110.986 E0.01301
G1 X97.032 Y110.992 E0.01267
G1 X97.222 Y111.043 E0.00984
G1 X97.478 Y110.895 F7200.000
G1 F5760.000
G1 X97.509 Y111.173 E-0.10930
G1 X97.706 Y111.333 E-0.08783
G1 X97.865 Y111.529 E-0.08757
G1 X97.980 Y111.755 E-0.08767
G1 X98.040 Y111.999 E-0.08710
G1 X98.040 Y112.238 E-0.08256
G1 X97.951 Y112.861 E-0.21797
G1 E-0.04000 F2100.00000
G1 Z0.950 F7200.000
G1 X95.938 Y110.605
G1 Z0.350
G1 E0.80000 F2100.00000
G1 F1800.000
G1 X95.843 Y110.884 E0.01480
G1 X95.641 Y111.277 E0.02216
G1 X95.500 Y111.639 E0.01948
G1 X95.088 Y112.377 E0.04243
G1 X94.851 Y112.698 E0.02004
G1 X94.541 Y112.937 E0.01964
G1 X94.310 Y113.058 E0.01307
G1 X93.956 Y113.175 E0.01874
G1 X93.390 Y113.266 E0.02875
G1 X92.853 Y113.294 E0.02701
G1 X92.042 Y113.286 E0.04067
G1 X91.504 Y113.329 E0.02707
G1 X91.248 Y113.280 E0.01309
G1 X91.079 Y113.189 E0.00961
G1 X90.945 Y113.067 E0.00911
G1 X90.810 Y112.846 E0.01303
G1 X90.729 Y112.576 E0.01411
G1 X90.702 Y112.270 E0.01544
G1 X90.719 Y111.664 E0.03041
G1 X90.724 Y108.056 E0.18110
G1 X90.686 Y107.600 E0.02295
G1 X90.691 Y107.328 E0.01367
G1 X90.787 Y107.054 E0.01454
G1 X90.906 Y106.905 E0.00959
G1 X91.055 Y106.789 E0.00943
G1 X91.387 Y106.660 E0.01789
G1 X91.724 Y106.624 E0.01702
G1 X93.355 Y106.661 E0.08185
G1 X93.963 Y106.750 E0.03086
G1 X94.435 Y106.897 E0.02482
G1 X94.840 Y107.122 E0.02323
G1 X95.170 Y107.407 E0.02190
G1 X95.484 Y107.805 E0.02545
G1 X95.734 Y108.281 E0.02698
G1 X95.910 Y108.823 E0.02856
G1 X96.010 Y109.456 E0.03221
G1 X96.026 Y109.991 E0.02682
G1 X95.957 Y110.548 E0.02819
G1 X96.151 Y110.809 F7200.000
G1 F5760.000
G1 X95.843 Y110.884 E-0.12295
G1 X95.641 Y111.277 E-0.15295
G1 X95.500 Y111.639 E-0.13445
G1 X95.088 Y112.377 E-0.29283
G1 X94.991 Y112.509 E-0.05683
G1 E-0.04000 F2100.00000
G1 Z0.950 F7200.000
G1 X89.959 Y109.159
G1 Z0.350
G1 E0.80000 F2100.00000
G1 F1800.000
G1 X90.070 Y108.962 E0.01133
G1 X90.196 Y108.424 E0.02772
G1 X90.379 Y108.446 E0.00927
G1 X90.377 Y110.134 E0.08474
G1 X90.215 Y110.170 E0.00830
G1 X90.074 Y109.872 E0.01655
G1 X89.856 Y109.628 E0.01644
G1 X89.624 Y109.479 E0.01384
G1 X89.901 Y109.262 E0.01767
G1 X89.929 Y109.211 E0.00293
G1 X89.634 Y109.033 F7200.000
G1 F1800.000
G1 X89.446 Y109.180 E0.01198
G1 X89.315 Y109.319 E0.00960
G1 X89.022 Y109.509 E0.01753
G1 X89.299 Y109.649 E0.01561
G1 X89.441 Y109.772 E0.00943
G1 X89.630 Y109.893 E0.01123
G1 X89.784 Y110.065 E0.01157
G1 X89.984 Y110.488 E0.02352
G1 X90.088 Y110.884 E0.02053
G1 X90.122 Y111.231 E0.01749
G1 X90.073 Y111.682 E0.02274
G1 X89.919 Y112.143 E0.02441
G1 X89.737 Y112.474 E0.01896
G1 X89.590 Y112.674 E0.01245
G1 X89.420 Y112.855 E0.01247
G1 X89.051 Y113.139 E0.02336
G1 X88.721 Y113.302 E0.01845
G1 X88.268 Y113.425 E0.02360
G1 X87.867 Y113.465 E0.02022
G1 X87.432 Y113.458 E0.02181
G1 X87.038 Y113.404 E0.01998
G1 X86.709 Y113.312 E0.01714
G1 X86.417 Y113.181 E0.01606
G1 X86.171 Y113.007 E0.01508
G1 X85.972 Y112.778 E0.01526
G1 X85.826 Y112.445 E0.01824
G1 X85.789 Y112.145 E0.01514
G1 X85.835 Y111.856 E0.01469
G1 X85.971 Y111.600 E0.01455
G1 X86.176 Y111.419 E0.01374
G1 X86.424 Y111.312 E0.01357
G1 X86.713 Y111.273 E0.01460
G1 X87.059 Y111.322 E0.01757
G1 X87.319 Y111.438 E0.01426
G1 X87.731 Y111.738 E0.02560
G1 X87.810 Y111.758 E0.00407
G1 X87.927 Y111.732 E0.00601
G1 X88.053 Y111.659 E0.00733
G1 X88.144 Y111.556 E0.00691
G1 X88.201 Y111.425 E0.00717
G1 X88.216 Y111.280 E0.00730
G1 X88.183 Y111.130 E0.00769
G1 X88.087 Y110.951 E0.01020
G1 X87.975 Y110.822 E0.00857
G1 X87.839 Y110.714 E0.00871
G1 X87.689 Y110.638 E0.00844
G1 X87.504 Y110.585 E0.00966
G1 X87.080 Y110.510 E0.02160
G1 X86.844 Y110.418 E0.01273
G1 X86.696 Y110.309 E0.00921
G1 X86.576 Y110.159 E0.00965
G1 X86.507 Y109.993 E0.00903
G1 X86.475 Y109.809 E0.00934
G1 X86.483 Y109.613 E0.00985
G1 X86.560 Y109.347 E0.01388
G1 X86.647 Y109.166 E0.01011
G1 X86.784 Y109.008 E0.01045
G1 X86.940 Y108.912 E0.00923
G1 X87.153 Y108.823 E0.01157
G1 X87.681 Y108.687 E0.02737
G1 X87.772 Y108.636 E0.00521
G1 X87.895 Y108.497 E0.00932
G1 X87.919 Y108.413 E0.00439
G1 X87.887 Y108.268 E0.00748
G1 X87.806 Y108.199 E0.00535
G1 X87.658 Y108.192 E0.00741
G1 X87.484 Y108.246 E0.00916
G1 X87.163 Y108.435 E0.01866
G1 X86.929 Y108.540 E0.01290
G1 X86.714 Y108.601 E0.01122
G1 X86.515 Y108.603 E0.00999
G1 X86.327 Y108.527 E0.01017
G1 X86.101 Y108.331 E0.01499
G1 X85.921 Y108.104 E0.01455
G1 X85.858 Y107.891 E0.01114
G1 X85.852 Y107.569 E0.01620
G1 X85.930 Y107.254 E0.01629
G1 X86.052 Y107.084 E0.01050
G1 X86.343 Y106.832 E0.01930
G1 X86.651 Y106.666 E0.01754
G1 X86.989 Y106.549 E0.01797
G1 X87.361 Y106.483 E0.01896
G1 X87.645 Y106.462 E0.01429
G1 X88.002 Y106.466 E0.01793
G1 X88.423 Y106.520 E0.02130
G1 X88.657 Y106.576 E0.01207
G1 X88.980 Y106.703 E0.01741
G1 X89.179 Y106.818 E0.01153
G1 X89.431 Y107.026 E0.01638
G1 X89.636 Y107.278 E0.01633
G1 X89.745 Y107.473 E0.01122
G1 X89.840 Y107.765 E0.01539
G1 X89.872 Y108.076 E0.01572
G1 X89.865 Y108.323 E0.01238
G1 X89.746 Y108.836 E0.02641
G1 X89.664 Y108.980 E0.00835
G1 X89.713 Y109.258 F7200.000
G1 F5760.000
G1 X89.446 Y109.180 E-0.10218
G1 X89.315 Y109.319 E-0.06625
G1 X89.022 Y109.509 E-0.12100
G1 X89.299 Y109.649 E-0.10774
G1 X89.441 Y109.772 E-0.06511
G1 X89.630 Y109.893 E-0.07754
G1 X89.784 Y110.065 E-0.07986
G1 X89.957 Y110.431 E-0.14032
G1 E-0.04000 F2100.00000
G1 Z0.950 F7200.000
G1 X105.793 Y115.804
G1 Z0.350
G1 E0.80000 F2100.00000
G1 F1800.000
G1 X105.071 Y116.115 E0.03946
G1 X104.546 Y116.304 E0.02798
G1 X104.460 Y116.152 E0.00879
G1 X104.719 Y115.943 E0.01671
G1 X104.992 Y115.594 E0.02221
G1 X105.159 Y115.312 E0.01644
G1 X105.463 Y114.644 E0.03682
G1 X106.115 Y112.908 E0.09308
G1 X106.274 Y113.335 E0.02289
G1 X106.466 Y113.643 E0.01821
G1 X106.708 Y113.886 E0.01721
G1 X107.016 Y114.074 E0.01810
G1 X107.431 Y114.190 E0.02162
G1 X107.737 Y114.204 E0.01538
G1 X108.269 Y114.173 E0.02675
G1 X108.320 Y114.321 E0.00786
G1 X107.603 Y114.822 E0.04391
G1 X106.603 Y115.411 E0.05826
G1 X105.847 Y115.778 E0.04216
G1 F5760.000
G1 X105.071 Y116.115 E-0.29312
G1 X104.546 Y116.304 E-0.19313
G1 X104.460 Y116.152 E-0.06065
G1 X104.719 Y115.943 E-0.11530
G1 X104.893 Y115.720 E-0.09779
G1 E-0.04000 F2100.00000
G1 Z0.950 F7200.000
G1 X77.508 Y108.975
G1 Z0.350
G1 E0.80000 F2100.00000
G1 F1800.000
G1 X77.931 Y109.230 E0.02478
G1 X78.305 Y109.403 E0.02066
G1 X78.714 Y109.495 E0.02104
G1 X79.086 Y109.493 E0.01866
G1 X79.569 Y109.345 E0.02537
G1 X79.897 Y109.100 E0.02053
G1 X80.052 Y108.912 E0.01225
G1 X80.155 Y108.978 E0.00609
G1 X80.459 Y109.093 E0.01633
G1 X80.887 Y109.149 E0.02168
G1 X81.183 Y109.114 E0.01491
G1 X81.200 Y111.898 E0.13973
G1 X81.159 Y112.403 E0.02542
G1 X81.178 Y112.792 E0.01953
G1 X81.273 Y113.124 E0.01734
G1 X81.462 Y113.444 E0.01867
G1 X81.728 Y113.701 E0.01855
G1 X82.025 Y113.868 E0.01708
G1 X82.336 Y113.970 E0.01645
G1 X82.656 Y114.012 E0.01619
G1 X82.973 Y113.998 E0.01593
G1 X83.311 Y113.917 E0.01745
G1 X83.735 Y113.686 E0.02421
G1 X84.078 Y113.299 E0.02597
G1 X84.264 Y112.874 E0.02328
G1 X84.342 Y112.440 E0.02210
G1 X84.328 Y109.105 E0.16740
G1 X84.740 Y109.088 E0.02069
G1 X85.155 Y109.001 E0.02129
G1 X85.596 Y108.806 E0.02420
G1 X85.918 Y109.086 E0.02140
G1 X85.798 Y109.501 E0.02172
G1 X85.783 Y109.854 E0.01773
G1 X85.840 Y110.187 E0.01695
G1 X85.977 Y110.513 E0.01770
G1 X86.119 Y110.692 E0.01150
G1 X85.802 Y110.830 E0.01734
G1 X85.420 Y111.166 E0.02555
G1 X85.172 Y111.635 E0.02662
G1 X85.093 Y112.133 E0.02530
G1 X85.154 Y112.630 E0.02512
G1 X85.383 Y113.150 E0.02856
G1 X85.705 Y113.522 E0.02466
G1 X86.073 Y113.783 E0.02266
G1 X86.474 Y113.962 E0.02202
G1 X86.897 Y114.081 E0.02207
G1 X87.379 Y114.147 E0.02444
G1 X87.895 Y114.155 E0.02589
G1 X88.393 Y114.106 E0.02511
G1 X88.967 Y113.950 E0.02983
G1 X89.418 Y113.727 E0.02522
G1 X89.885 Y113.367 E0.02962
G1 X90.148 Y113.086 E0.01931
G1 X90.408 Y113.510 E0.02495
G1 X90.678 Y113.757 E0.01832
G1 X91.016 Y113.938 E0.01925
G1 X91.467 Y114.024 E0.02304
G1 X92.066 Y113.976 E0.03017
G1 X92.867 Y113.984 E0.04019
G1 X93.463 Y113.953 E0.02998
G1 X94.120 Y113.847 E0.03337
G1 X94.580 Y113.695 E0.02429
G1 X94.914 Y113.521 E0.01895
G1 X95.018 Y113.441 E0.00656
G1 X95.142 Y113.655 E0.01243
G1 X95.404 Y113.955 E0.02001
G1 X95.729 Y114.189 E0.02008
G1 X96.095 Y114.358 E0.02022
G1 X96.631 Y114.468 E0.02746
G1 X97.175 Y114.427 E0.02737
G1 X97.575 Y114.301 E0.02107
G1 X97.921 Y114.096 E0.02016
G1 X98.191 Y113.856 E0.01812
G1 X98.258 Y113.915 E0.00449
G1 X98.560 Y114.057 E0.01675
G1 X98.859 Y114.141 E0.01560
G1 X99.253 Y114.154 E0.01978
G1 X99.771 Y113.983 E0.02733
G1 X100.105 Y113.682 E0.02260
G1 X100.225 Y113.821 E0.00922
G1 X100.612 Y114.079 E0.02332
G1 X101.010 Y114.189 E0.02075
G1 X101.442 Y114.185 E0.02165
G1 X101.236 Y114.592 E0.02287
G1 X101.179 Y114.986 E0.01997
G1 X101.225 Y115.433 E0.02258
G1 X101.386 Y115.853 E0.02254
G1 X101.582 Y116.153 E0.01801
G1 X101.912 Y116.459 E0.02258
G1 X102.242 Y116.624 E0.01852
G1 X102.444 Y116.675 E0.01046
G1 X102.438 Y116.843 E0.00840
G1 X101.446 Y116.983 E0.05025
G1 X100.887 Y117.028 E0.02818
G1 X99.984 Y117.053 E0.04533
G1 X99.178 Y117.026 E0.04048
G1 X75.858 Y115.596 E1.17254
G1 X75.616 Y115.555 E0.01227
G1 X75.486 Y115.498 E0.00715
G1 X75.377 Y115.411 E0.00697
G1 X75.286 Y115.286 E0.00777
G1 X75.226 Y115.136 E0.00811
G1 X75.195 Y114.936 E0.01019
G1 X75.190 Y113.257 E0.08426
G1 X75.517 Y113.527 E0.02127
G1 X76.057 Y113.837 E0.03127
G1 X76.391 Y113.969 E0.01800
G1 X76.758 Y114.070 E0.01911
G1 X77.109 Y114.129 E0.01786
G1 X77.636 Y114.157 E0.02648
G1 X78.136 Y114.125 E0.02518
G1 X78.599 Y114.034 E0.02365
G1 X79.041 Y113.877 E0.02356
G1 X79.443 Y113.653 E0.02310
G1 X79.800 Y113.363 E0.02308
G1 X80.098 Y113.012 E0.02311
G1 X80.317 Y112.627 E0.02224
G1 X80.463 Y112.224 E0.02149
G1 X80.471 Y111.874 E0.01755
G1 X80.363 Y111.421 E0.02337
G1 X80.164 Y111.092 E0.01932
G1 X79.922 Y110.839 E0.01756
G1 X79.544 Y110.600 E0.02247
G1 X79.222 Y110.488 E0.01708
G1 X78.912 Y110.440 E0.01575
G1 X78.573 Y110.447 E0.01700
G1 X78.120 Y110.570 E0.02357
G1 X77.723 Y110.837 E0.02401
G1 X77.616 Y110.965 E0.00839
G1 X77.464 Y110.946 E0.00767
G1 X77.343 Y110.881 E0.00687
G1 X77.261 Y110.736 E0.00836
G1 X77.213 Y110.563 E0.00906
G1 X77.178 Y110.317 E0.01242
G1 X77.162 Y109.928 E0.01955
G1 X77.181 Y109.578 E0.01758
G1 X77.217 Y109.354 E0.01140
G1 X77.285 Y109.139 E0.01129
G1 X77.362 Y109.029 E0.00675
G1 X77.450 Y108.989 E0.00485
G1 X77.370 Y108.654 F7200.000
G1 F1800.000
G1 X77.474 Y108.629 E0.00534
G1 X77.612 Y108.638 E0.00693
G1 X78.093 Y108.925 E0.02812
G1 X78.416 Y109.074 E0.01787
G1 X78.752 Y109.150 E0.01726
G1 X79.034 Y109.149 E0.01414
G1 X79.411 Y109.033 E0.01980
G1 X79.658 Y108.849 E0.01545
G1 X79.889 Y108.569 E0.01822
G1 X79.970 Y108.388 E0.00992
G1 X80.080 Y108.520 E0.00863
G1 X80.310 Y108.668 E0.01372
G1 X80.543 Y108.756 E0.01251
G1 X80.890 Y108.801 E0.01752
G1 X81.553 Y108.723 E0.03353
G1 X81.528 Y109.131 E0.02054
G1 X81.544 Y111.911 E0.13950
G1 X81.505 Y112.408 E0.02505
G1 X81.521 Y112.735 E0.01641
G1 X81.593 Y112.986 E0.01313
G1 X81.736 Y113.229 E0.01411
G1 X81.936 Y113.422 E0.01398
G1 X82.165 Y113.551 E0.01317
G1 X82.413 Y113.633 E0.01313
G1 X82.671 Y113.666 E0.01305
G1 X82.925 Y113.655 E0.01275
G1 X83.186 Y113.593 E0.01348
G1 X83.517 Y113.412 E0.01889
G1 X83.784 Y113.111 E0.02022
G1 X83.932 Y112.773 E0.01851
G1 X83.997 Y112.410 E0.01849
G1 X83.982 Y108.756 E0.18336
G1 X84.697 Y108.745 E0.03592
G1 X85.049 Y108.671 E0.01802
G1 X85.364 Y108.532 E0.01728
G1 X85.632 Y108.296 E0.01794
G1 X85.851 Y108.571 E0.01764
G1 X86.144 Y108.826 E0.01949
G1 X86.382 Y108.921 E0.01286
G1 X86.237 Y109.224 E0.01687
